src/topics/icons/emmet.svg

<svg height="256" preserveAspectRatio="xMidYMid" viewBox="0 0 256 256" width="256" xmlns="http://www.w3.org/2000/svg"><circle cx="127.555396" cy="128.183974" fill="#1c1c20" r="127.555396"/><path d="m178.49647 124.737291-14.205757-14.205758 7.305818-30.0350294-30.440909 6.8999393-13.799879-13.7998786 68.187636-17.046909z" fill="#baffa9"/><path d="m154.955501 218.901169-121.7636356-121.7636352 68.1876356-17.046909 13.799879 13.7998787-48.7054543 12.1763635 27.5997573 27.599757 32.064424-7.711697-8.117576 31.658546 27.599757 27.599757 12.176364-48.705454 14.205758 14.205757z" fill="#7acb16"/></svg>

<?xml version="1.0" encoding="UTF-8" standalone="no"?>
<svg width="256px" height="256px" viewBox="0 0 256 256" version="1.1" xmlns="http://www.w3.org/2000/svg" xmlns:xlink="http://www.w3.org/1999/xlink" preserveAspectRatio="xMidYMid">
	<g>
		<circle fill="#1C1C20" cx="127.555396" cy="128.183974" r="127.555396"></circle>
		<path d="M178.49647,124.737291 L164.290713,110.531533 L171.596531,80.4965036 L141.155622,87.3964429 L127.355743,73.5965643 L195.543379,56.5496553 L178.49647,124.737291 L178.49647,124.737291 Z" fill="#BAFFA9"></path>
		<path d="M154.955501,218.901169 L33.1918654,97.1375338 L101.379501,80.0906248 L115.17938,93.8905035 L66.4739257,106.066867 L94.073683,133.666624 L126.138107,125.954927 L118.020531,157.613473 L145.620288,185.21323 L157.796652,136.507776 L172.00241,150.713533 L154.955501,218.901169 L154.955501,218.901169 Z" fill="#7ACB16"></path>
	</g>
</svg>
